findly-builder/apps/searchassist/src/assets/images/source-icos/crawlwebdomain.svg

<svg width="76" height="76" viewBox="0 0 76 76" fill="none" xmlns="http://www.w3.org/2000/svg">
<path d="M69.6668 38C69.6668 55.4879 55.4881 69.6667 38.0002 69.6667C20.5122 69.6667 6.3335 55.4879 6.3335 38C6.3335 20.5121 20.5122 6.33331 38.0002 6.33331C55.4881 6.33331 69.6668 20.5121 69.6668 38Z" fill="#0D6EFD"/>
<path d="M64.9166 38C64.9166 34.0971 64.2848 30.3715 63.1812 26.9167H67.632C67.2266 25.8321 66.7675 24.7744 66.2497 23.75H62.0032C57.562 13.4346 48.4831 6.33331 37.9999 6.33331C27.5166 6.33331 18.4378 13.4346 13.995 23.75H9.74846C9.23071 24.7744 8.77313 25.8321 8.36621 26.9167H12.817C11.715 30.3715 11.0832 34.0971 11.0832 38C11.0832 41.9029 11.715 45.6285 12.8185 49.0833H8.36779C8.77313 50.1679 9.23229 51.2256 9.75004 52.25H13.9965C18.4394 62.5654 27.5182 69.6667 38.0015 69.6667C48.4847 69.6667 57.5635 62.5654 62.0064 52.25H66.2529C66.7706 51.2256 67.2282 50.1679 67.6351 49.0833H63.1844C64.2848 45.6285 64.9166 41.9029 64.9166 38ZM61.7499 38C61.7499 41.9282 61.0833 45.6744 59.88 49.0833H49.8907C50.4021 45.4955 50.6665 41.7208 50.6665 38C50.6665 34.2792 50.4037 30.5045 49.8907 26.9167H59.88C61.0833 30.3256 61.7499 34.0717 61.7499 38ZM37.9999 66.5C34.9345 66.5 31.6333 61.0454 29.8425 52.25H46.1572C44.3665 61.0454 41.0652 66.5 37.9999 66.5ZM29.2915 49.0833C28.7928 45.7377 28.4999 42.0201 28.4999 38C28.4999 33.9799 28.7928 30.2622 29.2915 26.9167H46.7082C47.207 30.2622 47.4999 33.9799 47.4999 38C47.4999 42.0201 47.207 45.7377 46.7082 49.0833H29.2915ZM37.9999 9.49998C41.0652 9.49998 44.3665 14.9546 46.1572 23.75H29.8425C31.6333 14.9546 34.9345 9.49998 37.9999 9.49998ZM58.5357 23.75H49.3651C48.3533 18.4775 46.7636 13.8193 44.6245 10.6511C50.5431 12.7189 55.5021 17.4768 58.5357 23.75ZM31.3752 10.6511C29.2377 13.8209 27.6465 18.4775 26.6347 23.75H17.464C20.4977 17.4768 25.4567 12.7189 31.3752 10.6511ZM14.2499 38C14.2499 34.0717 14.9165 30.3256 16.1198 26.9167H26.109C25.596 30.5045 25.3332 34.2792 25.3332 38C25.3332 41.7208 25.596 45.4955 26.109 49.0833H16.1198C14.9165 45.6744 14.2499 41.9282 14.2499 38ZM17.464 52.25H26.6347C27.6465 57.5225 29.2361 62.1807 31.3752 65.3489C25.4567 63.2811 20.4977 58.5232 17.464 52.25ZM44.6245 65.3489C46.7621 62.1791 48.3533 57.5225 49.3651 52.25H58.5357C55.5021 58.5232 50.5431 63.2811 44.6245 65.3489Z" fill="#85B7FE"/>
<path opacity="0.05" d="M55.8348 47.9781L43.3344 35.4777C42.69 34.8349 41.7352 34.6496 40.9119 35.0138C40.1044 35.3606 39.5835 36.1522 39.5835 37.031V54.9195C39.5835 56.9841 41.7891 57.8312 43.2077 56.6152L45.7142 54.5268L47.5936 58.8493C47.9546 59.6726 49.188 60.4659 50.4848 59.9846L52.6143 59.0583C53.7338 58.5833 54.337 57.4196 53.7559 56.1671L51.9319 51.9681L54.4684 51.7402C56.4888 51.7402 57.2377 49.3683 55.8348 47.9781Z" fill="black"/>
<path opacity="0.07" d="M55.2742 48.5371L42.7737 36.0367C42.3526 35.6171 41.7446 35.5142 41.2237 35.7406C40.717 35.9607 40.375 36.4563 40.375 37.0295V54.918C40.375 56.2163 41.7873 56.7847 42.7009 56.0057L46.018 53.2396L48.317 58.5311C48.564 59.098 49.362 59.565 50.1663 59.2579L52.2975 58.3316C53.0132 58.026 53.3853 57.2645 53.0274 56.4823L50.7648 51.2779L54.3954 50.9533C55.6732 50.928 56.164 49.4206 55.2742 48.5371Z" fill="black"/>
<path d="M54.7135 49.0976L42.2131 36.5972C42.0168 36.4008 41.7508 36.3755 41.5354 36.4689C41.328 36.5592 41.1665 36.7618 41.1665 37.031V54.9179C41.1665 55.4483 41.7856 55.7381 42.1941 55.3992L46.3234 51.9555L49.0436 58.2144C49.1782 58.5247 49.5408 58.6672 49.8511 58.5327L51.9838 57.6048C52.2942 57.4702 52.4367 57.1077 52.3021 56.7973L49.6025 50.5859L54.3272 50.1632C54.856 50.1157 55.0903 49.4728 54.7135 49.0976Z" fill="white"/>
</svg>

<svg width="76" height="76" fill="none" xmlns="http://www.w3.org/2000/svg"><path d="M69.667 38c0 17.488-14.179 31.667-31.667 31.667S6.334 55.487 6.334 38C6.334 20.512 20.512 6.333 38 6.333S69.667 20.513 69.667 38Z" fill="#0D6EFD"/><path d="M64.917 38c0-3.903-.632-7.628-1.736-11.083h4.451a31.335 31.335 0 0 0-1.382-3.167h-4.247C57.562 13.435 48.483 6.333 38 6.333S18.438 13.435 13.995 23.75H9.748a31.693 31.693 0 0 0-1.382 3.167h4.451A36.43 36.43 0 0 0 11.083 38c0 3.903.632 7.629 1.736 11.083H8.367A31.332 31.332 0 0 0 9.75 52.25h4.246c4.443 10.315 13.522 17.417 24.006 17.417 10.483 0 19.561-7.102 24.004-17.417h4.247a31.7 31.7 0 0 0 1.382-3.167h-4.45A36.479 36.479 0 0 0 64.916 38Zm-3.167 0c0 3.928-.667 7.674-1.87 11.083h-9.99c.512-3.587.776-7.362.776-11.083 0-3.72-.262-7.495-.775-11.083h9.989c1.203 3.409 1.87 7.155 1.87 11.083ZM38 66.5c-3.066 0-6.367-5.455-8.157-14.25h16.314C44.367 61.045 41.065 66.5 38 66.5Zm-8.71-17.417c-.497-3.345-.79-7.063-.79-11.083 0-4.02.293-7.738.791-11.083h17.417c.499 3.345.792 7.063.792 11.083 0 4.02-.293 7.738-.792 11.083H29.292ZM38 9.5c3.065 0 6.367 5.455 8.157 14.25H29.843C31.633 14.955 34.934 9.5 38 9.5Zm20.536 14.25h-9.17c-1.013-5.273-2.602-9.93-4.742-13.099 5.92 2.068 10.878 6.826 13.912 13.099Zm-27.16-13.099c-2.138 3.17-3.73 7.826-4.741 13.099h-9.171c3.034-6.273 7.993-11.031 13.911-13.099ZM14.25 38c0-3.928.666-7.674 1.87-11.083h9.989A79.066 79.066 0 0 0 25.333 38c0 3.72.263 7.495.776 11.083h-9.99c-1.203-3.409-1.87-7.155-1.87-11.083Zm3.214 14.25h9.17c1.012 5.273 2.602 9.93 4.741 13.099-5.918-2.068-10.877-6.826-13.911-13.099Zm27.16 13.099c2.138-3.17 3.73-7.827 4.741-13.099h9.17c-3.033 6.273-7.992 11.031-13.91 13.099Z" fill="#85B7FE"/><path opacity=".05" d="m55.835 47.978-12.5-12.5a2.175 2.175 0 0 0-2.423-.464 2.192 2.192 0 0 0-1.328 2.017V54.92c0 2.064 2.205 2.911 3.624 1.695l2.506-2.088 1.88 4.322c.36.824 1.594 1.617 2.89 1.136l2.13-.927c1.12-.475 1.723-1.638 1.142-2.89l-1.824-4.2 2.536-.228c2.02 0 2.77-2.372 1.367-3.762Z" fill="#000"/><path opacity=".07" d="m55.274 48.537-12.5-12.5a1.393 1.393 0 0 0-1.55-.296 1.4 1.4 0 0 0-.849 1.288v17.889c0 1.298 1.412 1.867 2.326 1.088l3.317-2.766 2.299 5.291c.247.567 1.045 1.034 1.85.727l2.13-.926c.716-.306 1.088-1.068.73-1.85l-2.262-5.204 3.63-.325c1.278-.025 1.769-1.532.88-2.416Z" fill="#000"/><path d="m54.714 49.098-12.5-12.5a.603.603 0 0 0-.679-.13.605.605 0 0 0-.368.563v17.887c0 .53.619.82 1.027.481l4.13-3.444 2.72 6.26c.134.31.497.452.807.318l2.133-.928a.615.615 0 0 0 .318-.808l-2.7-6.211 4.725-.423a.625.625 0 0 0 .387-1.065Z" fill="#fff"/></svg>
